src/icons/outline/symbols/eye.svg

<svg width="24" height="24" viewBox="0 0 24 24" fill="none" xmlns="http://www.w3.org/2000/svg">
<path d="M12.3779 5.00195C16.2796 5.08968 20.0807 7.86587 22.4131 10.46C23.1954 11.3458 23.1955 12.6694 22.4131 13.5449C20.0055 16.2328 16.0329 19.0527 11.9902 19.002H11.8398C7.88738 19.002 3.9645 16.1921 1.58691 13.5449C0.80446 12.6693 0.804531 11.3458 1.58691 10.46C3.90969 7.86574 7.74815 5.08942 11.625 5.00195H12.3779ZM11.8594 6.5293C8.38835 6.52932 4.85705 9.0752 2.7002 11.4883C2.43957 11.7836 2.43943 12.2214 2.7002 12.5166C4.80901 14.8739 8.20767 17.3933 11.6465 17.4746H12.1006C15.6014 17.4744 19.1323 14.9295 21.2891 12.5166C21.5499 12.2213 21.5499 11.7836 21.2891 11.4883C19.1121 9.05483 15.5209 6.4484 12.0098 6.54004H11.8594V6.5293ZM12 7.78223C13.1134 7.78223 14.157 8.21921 14.9395 9.02344C15.7219 9.8278 16.1631 10.8874 16.1631 12.0176C16.163 14.3491 14.2972 16.2432 12 16.2432V16.2324C9.70271 16.2324 7.83691 14.3385 7.83691 12.0068C7.8371 9.67537 9.70282 7.78224 12 7.78223ZM12 9.29883C10.5354 9.29885 9.3418 10.5105 9.3418 11.9971C9.34183 13.4836 10.5354 14.6953 12 14.6953C13.4646 14.6953 14.6582 13.4836 14.6582 11.9971C14.6582 10.5105 13.4647 9.29883 12 9.29883Z" fill="#212121"/>
</svg>

<svg xmlns="http://www.w3.org/2000/svg" width="24" height="24" fill="none" viewBox="0 0 24 24"><path fill="currentColor" d="M12.378 5.002c3.902.088 7.703 2.864 10.035 5.458a2.32 2.32 0 0 1 0 3.085c-2.407 2.688-6.38 5.508-10.423 5.457h-.15c-3.953 0-7.875-2.81-10.253-5.457a2.32 2.32 0 0 1 0-3.085C3.91 7.866 7.748 5.09 11.625 5.002zm-.519 1.527c-3.47 0-7.002 2.546-9.159 4.96a.774.774 0 0 0 0 1.028c2.109 2.357 5.508 4.876 8.946 4.958h.455c3.5 0 7.031-2.546 9.188-4.958a.774.774 0 0 0 0-1.029c-2.177-2.433-5.768-5.04-9.28-4.948h-.15zM12 7.782c1.113 0 2.157.437 2.94 1.241a4.27 4.27 0 0 1 1.223 2.995c0 2.331-1.866 4.225-4.163 4.225v-.01c-2.297 0-4.163-1.895-4.163-4.226S9.703 7.782 12 7.782M12 9.3c-1.465 0-2.658 1.212-2.658 2.698 0 1.487 1.193 2.698 2.658 2.698s2.658-1.211 2.658-2.698S13.465 9.3 12 9.3"/></svg>
